assets/img/braze_icons/bar-chart-square-plus.svg

<svg fill="none" height="24" viewBox="0 0 24 24" width="24" xmlns="http://www.w3.org/2000/svg"><g fill="#801ed7"><path clip-rule="evenodd" d="m2 17.8385v-8.08397c0-.14057.11396-.25453.25453-.25453.09086 0 .17413.04892.22342.12525.53415.82715 1.46415 1.37475 2.52205 1.37475 1.65685 0 3-1.34315 3-3 1.65685 0 3-1.34315 3-3 0-1.0579-.5476-1.9879-1.37475-2.52205-.07633-.04929-.12525-.13256-.12525-.22342 0-.14057.11396-.25453.25453-.25453h8.08397c.5272-.00002.982-.00003 1.3565.03057.3954.0323.7886.10362 1.167.29641.5645.28762 1.0234.74656 1.311 1.31105.1928.37838.2641.7716.2964 1.16694.0306.37457.0306.82933.0306 1.35647v11.67716c0 .5271 0 .9819-.0306 1.3564-.0323.3954-.1036.7886-.2964 1.167-.2876.5645-.7465 1.0234-1.311 1.311-.3784.1928-.7716.2641-1.167.2964-.3745.0306-.8293.0306-1.3564.0306h-11.67716c-.52714 0-.9819 0-1.35647-.0306-.39534-.0323-.78856-.1036-1.16694-.2964-.56449-.2876-1.02343-.7465-1.31105-1.311-.19279-.3784-.26411-.7716-.29641-1.167-.0306-.3745-.03059-.8293-.03057-1.3565zm16-10.8385c0-.55228-.4477-1-1-1s-1 .44772-1 1v10c0 .5523.4477 1 1 1s1-.4477 1-1zm-5 3c.5523 0 1 .4477 1 1v6c0 .5523-.4477 1-1 1s-1-.4477-1-1v-6c0-.5523.4477-1 1-1zm-4 2c.55229 0 1 .4477 1 1v4c0 .5523-.44771 1-1 1-.55228 0-1-.4477-1-1v-4c0-.5523.44772-1 1-1z" fill-rule="evenodd"/><path d="m6 2c0-.55228-.44772-1-1-1s-1 .44772-1 1v2h-2c-.55228 0-1 .44772-1 1s.44772 1 1 1h2v2c0 .55228.44772 1 1 1s1-.44772 1-1v-2h2c.55228 0 1-.44772 1-1s-.44772-1-1-1h-2z"/></g></svg>

<svg width="24" height="24" viewBox="0 0 24 24" fill="none" xmlns="http://www.w3.org/2000/svg">
<path fill-rule="evenodd" clip-rule="evenodd" d="M2 17.8385V9.75453C2 9.61396 2.11396 9.5 2.25453 9.5C2.34539 9.5 2.42866 9.54892 2.47795 9.62525C3.0121 10.4524 3.9421 11 5 11C6.65685 11 8 9.65685 8 8C9.65685 8 11 6.65685 11 5C11 3.9421 10.4524 3.0121 9.62525 2.47795C9.54892 2.42866 9.5 2.34539 9.5 2.25453C9.5 2.11396 9.61396 2 9.75453 2H17.8385C18.3657 1.99998 18.8205 1.99997 19.195 2.03057C19.5904 2.06287 19.9836 2.13419 20.362 2.32698C20.9265 2.6146 21.3854 3.07354 21.673 3.63803C21.8658 4.01641 21.9371 4.40963 21.9694 4.80497C22 5.17954 22 5.6343 22 6.16144V17.8386C22 18.3657 22 18.8205 21.9694 19.195C21.9371 19.5904 21.8658 19.9836 21.673 20.362C21.3854 20.9265 20.9265 21.3854 20.362 21.673C19.9836 21.8658 19.5904 21.9371 19.195 21.9694C18.8205 22 18.3657 22 17.8386 22H6.16144C5.6343 22 5.17954 22 4.80497 21.9694C4.40963 21.9371 4.01641 21.8658 3.63803 21.673C3.07354 21.3854 2.6146 20.9265 2.32698 20.362C2.13419 19.9836 2.06287 19.5904 2.03057 19.195C1.99997 18.8205 1.99998 18.3657 2 17.8385ZM18 7C18 6.44772 17.5523 6 17 6C16.4477 6 16 6.44772 16 7V17C16 17.5523 16.4477 18 17 18C17.5523 18 18 17.5523 18 17V7ZM13 10C13.5523 10 14 10.4477 14 11V17C14 17.5523 13.5523 18 13 18C12.4477 18 12 17.5523 12 17V11C12 10.4477 12.4477 10 13 10ZM9 12C9.55229 12 10 12.4477 10 13V17C10 17.5523 9.55229 18 9 18C8.44772 18 8 17.5523 8 17V13C8 12.4477 8.44772 12 9 12Z" fill="#801ED7"/>
<path d="M6 2C6 1.44772 5.55228 1 5 1C4.44772 1 4 1.44772 4 2V4H2C1.44772 4 1 4.44772 1 5C1 5.55228 1.44772 6 2 6H4V8C4 8.55228 4.44772 9 5 9C5.55228 9 6 8.55228 6 8V6H8C8.55228 6 9 5.55228 9 5C9 4.44772 8.55228 4 8 4H6V2Z" fill="#801ED7"/>
</svg>
